X: 3801
T: Black Bear, The
R: hornpipe
M: 4/4
K: Gmajor
G2 G2 B>G d>B/|G2 G2 B>G d>B|A2 E2 E2 A>G|F<G E>F D>E F>D|
G2 G2 B>G d>B/|G2 G2 B>G d>B|A2 A2 A2 B>A|G2 B2 G2 D2:|
D3 E G3 A|c2 B>A d2 B>G|D3 E G3 A|
c2 B>A d2 B>G|D4 D4|E4 F4|G4 A2 B>c|d2 d2 d>c B>A|

